symbolic/32x32/apps/de.unifreiburg.ellipticcurve.svg

<svg xmlns="http://www.w3.org/2000/svg" width="32" height="32" version="1">
 <path fill="#e4e4e4" d="m27 28.5v-25c0-0.831-0.669-1.5-1.5-1.5h-19c-0.831 0-1.5 0.669-1.5 1.5v25c0 0.831 0.669 1.5 1.5 1.5h19c0.831 0 1.5-0.669 1.5-1.5z"/>
 <path style="fill:#646464;fill-rule:evenodd" d="M 23.763672 2 C 23.597101 2.518453 22.837894 4.8621504 21.777344 7.5449219 C 21.185597 9.0418065 20.529083 10.553626 19.912109 11.695312 C 19.603622 12.266156 19.301253 12.745489 19.044922 13.068359 C 18.788591 13.39123 18.555333 13.52034 18.585938 13.511719 C 18.374367 13.571319 18.059447 13.499639 17.574219 13.171875 C 17.08899 12.844114 16.514113 12.301131 15.908203 11.714844 C 14.696383 10.542269 13.388255 9.0841634 11.625 9.0507812 C 10.069937 9.021339 8.8282653 9.9108347 8.09375 11.158203 C 7.3592347 12.405572 7.0194136 14.006237 6.9511719 15.705078 C 6.8834699 17.390432 7.0402139 19.104558 7.6777344 20.503906 C 8.3152546 21.903254 9.5820014 22.98798 11.351562 23.021484 C 13.23904 23.057214 14.667907 21.720128 15.878906 20.564453 C 16.484406 19.986616 17.044664 19.43014 17.541016 19.050781 C 18.037367 18.671422 18.440134 18.504639 18.710938 18.509766 C 18.624067 18.508166 18.775658 18.524296 19.005859 18.792969 C 19.236063 19.061641 19.519069 19.508692 19.804688 20.0625 C 20.375922 21.170117 20.971185 22.702547 21.498047 24.236328 C 22.446895 26.998583 23.101053 29.475687 23.238281 30 L 24.794922 30 C 24.790997 29.984741 23.992196 26.882939 22.916016 23.75 C 22.376601 22.179675 21.770106 20.60313 21.136719 19.375 C 20.820025 18.760935 20.501876 18.233466 20.144531 17.816406 C 19.787186 17.399347 19.365042 17.021633 18.738281 17.009766 C 17.929308 16.994446 17.248007 17.387692 16.630859 17.859375 C 16.013712 18.331058 15.431092 18.916142 14.841797 19.478516 C 13.663207 20.603262 12.493586 21.542551 11.380859 21.521484 C 10.150212 21.498184 9.5199916 20.927918 9.0429688 19.880859 C 8.5659458 18.8338 8.3892081 17.308136 8.4511719 15.765625 C 8.5125919 14.236601 8.8415873 12.845675 9.3867188 11.919922 C 9.9318502 10.994169 10.581209 10.531574 11.595703 10.550781 C 12.402004 10.566041 13.647728 11.614892 14.865234 12.792969 C 15.473988 13.382007 16.08101 13.974682 16.734375 14.416016 C 17.38774 14.857349 18.168576 15.187101 18.992188 14.955078 C 19.540381 14.800644 19.875832 14.434395 20.220703 14 C 20.565575 13.565605 20.896516 13.02617 21.230469 12.408203 C 21.898374 11.172269 22.56804 9.6231669 23.171875 8.0957031 C 24.379545 5.0407757 25.320312 2.0722656 25.320312 2.0722656 L 25.09375 2 L 23.763672 2 z"/>
 <path fill="#fff" opacity=".1" d="m6.5 2c-0.831 0-1.5 0.669-1.5 1.5v1c0-0.831 0.669-1.5 1.5-1.5h19c0.831 0 1.5 0.669 1.5 1.5v-1c0-0.831-0.669-1.5-1.5-1.5z"/>
 <path opacity=".2" d="m5 28.5v1c0 0.831 0.669 1.5 1.5 1.5h19c0.831 0 1.5-0.669 1.5-1.5v-1c0 0.831-0.669 1.5-1.5 1.5h-19c-0.831 0-1.5-0.669-1.5-1.5z"/>
 <circle style="fill:#4f4f4f" cx="24" cy="23" r="8"/>
 <path style="fill:#ffffff" d="M 26.408203 19 C 26.286839 19 26.164547 19.046385 26.070312 19.140625 L 25.140625 20.078125 L 26.921875 21.859375 L 27.859375 20.929688 C 28.047855 20.741218 28.047855 20.444339 27.859375 20.255859 L 26.744141 19.140625 C 26.649901 19.046385 26.529567 19 26.408203 19 z M 24.433594 20.785156 L 20 25.21875 L 20 27 L 21.78125 27 L 26.214844 22.566406 L 24.433594 20.785156 z"/>
 <path fill-rule="evenodd" opacity=".2" d="m31.979 23.424a8 8 0 0 1 -7.979 7.576 8 8 0 0 1 -7.979 -7.424 8 8 0 0 0 -0.021 0.424 8 8 0 0 0 8 8 8 8 0 0 0 8 -8 8 8 0 0 0 -0.02148 -0.57617z"/>
</svg>

<svg xmlns="http://www.w3.org/2000/svg" width="32" height="32" version="1"><path fill="#e4e4e4" d="M27 28.5v-25c0-.831-.669-1.5-1.5-1.5h-19C5.669 2 5 2.669 5 3.5v25c0 .831.669 1.5 1.5 1.5h19c.831 0 1.5-.669 1.5-1.5z"/><path style="fill:#646464;fill-rule:evenodd" d="M23.764 2a94.355 94.355 0 0 1-1.987 5.545c-.591 1.497-1.248 3.009-1.865 4.15-.308.571-.61 1.05-.867 1.373-.256.323-.49.452-.46.444-.21.06-.526-.012-1.01-.34-.486-.328-1.06-.87-1.667-1.457-1.212-1.173-2.52-2.63-4.283-2.664-1.555-.03-2.797.86-3.531 2.107-.735 1.248-1.075 2.848-1.143 4.547-.068 1.685.09 3.4.727 4.799.637 1.4 1.904 2.484 3.674 2.517 1.887.036 3.316-1.3 4.527-2.457.605-.577 1.166-1.134 1.662-1.513.496-.38.9-.546 1.17-.541-.087-.002.065.014.295.283.23.269.513.716.799 1.27.57 1.107 1.166 2.64 1.693 4.173A84.75 84.75 0 0 1 23.238 30h1.557a94.107 94.107 0 0 0-1.879-6.25c-.54-1.57-1.146-3.147-1.78-4.375-.316-.614-.634-1.142-.991-1.559-.358-.417-.78-.794-1.407-.806-.809-.016-1.49.378-2.107.85-.617.471-1.2 1.056-1.79 1.619-1.178 1.124-2.347 2.064-3.46 2.042-1.23-.023-1.861-.593-2.338-1.64-.477-1.047-.654-2.573-.592-4.115.062-1.53.39-2.92.936-3.846.545-.926 1.194-1.388 2.209-1.37.806.016 2.052 1.065 3.27 2.243.608.589 1.215 1.182 1.868 1.623.654.441 1.435.771 2.258.54.548-.155.884-.522 1.229-.956.345-.434.676-.974 1.01-1.592.667-1.236 1.337-2.785 1.94-4.312 1.209-3.055 2.15-6.024 2.15-6.024L25.093 2h-1.33z"/><path fill="#fff" opacity=".1" d="M6.5 2C5.669 2 5 2.669 5 3.5v1C5 3.669 5.669 3 6.5 3h19c.831 0 1.5.669 1.5 1.5v-1c0-.831-.669-1.5-1.5-1.5z"/><path opacity=".2" d="M5 28.5v1c0 .831.669 1.5 1.5 1.5h19c.831 0 1.5-.669 1.5-1.5v-1c0 .831-.669 1.5-1.5 1.5h-19c-.831 0-1.5-.669-1.5-1.5z"/><circle style="fill:#4f4f4f" cx="24" cy="23" r="8"/><path style="fill:#fff" d="M26.408 19a.476.476 0 0 0-.338.14l-.93.938 1.782 1.781.937-.93a.472.472 0 0 0 0-.673l-1.115-1.115a.472.472 0 0 0-.336-.141zm-1.974 1.785L20 25.22V27h1.781l4.434-4.434-1.781-1.78z"/><path fill-rule="evenodd" opacity=".2" d="M31.979 23.424A8 8 0 0 1 24 31a8 8 0 0 1-7.979-7.424A8 8 0 0 0 16 24a8 8 0 0 0 8 8 8 8 0 0 0 8-8 8 8 0 0 0-.021-.576z"/></svg>
